X:1
T:Title
%%score { 1 | 2 }
L:1/8
Q:1/4=104
M:4/4
K:F
V:1 treble nm="Grand Piano"
V:2 bass 
V:1
 A3 A G F3 | [DF]3 [DF] D C3 | FFFF [=B,DG]2 [B,FA]2 | [CEG]6 z2 | A3 c c2 A2 | G2 A2 c2 B2 | %6
w: John~R.~Sweney * * *||||||
 [FA]3 [CF] [FA]GFE | F6 z2 | [EG]3 [FA] [EG] C3 | [GB]3 [Ac] [GB] [FA]3 | [Fd]3 [Fd] cAcA | %11
w: |||||
 [EG]6 z2 | A3 c c2 A2 | G2 A2 c2 B2 | [FA]3 [CF] [FA]GFE |[M:8/4] F8 z8 |] %16
w: |||||
V:2
 [F,CF]3 [F,CF] [F,B,C] [F,A,C]3 | [B,,B,]3 [B,,B,] [F,B,] [F,A,]3 | %2
 [D,A,D][D,A,D][D,A,D][D,A,D] G,,2 G,,2 | C,6 z2 | [F,CF]3 [F,A,F] [F,A,F]2 [F,CF]2 | %5
 [B,D]2 [A,D^F]2 [G,DG]2 [G,DG]2 | [C,C]3 [C,A,] [C,C][C,B,C][C,A,C][C,G,C] | [F,A,C]6 z2 | %8
 [C,C]3 [C,C] [C,C] [E,G,]3 | [C,C]3 [C,C] [F,C] [F,C]3 | %10
 [B,,B,]3 [B,,B,][K:treble] [F,A,F][F,CF][A,CF][K:bass][F,CF] | [C,C]6 z2 | %12
 [F,CF]3 [F,A,F] [F,A,F]2 [F,CF]2 | [B,D]2 [A,D^F]2 [G,DG]2 [G,DG]2 | %14
 [C,C]3 [C,A,] [C,C][C,B,C][C,A,C][C,G,C] |[M:8/4] [F,A,C]8 z8 |] %16

